X:1
T:Title
%%score { ( 1 3 ) | ( 2 4 ) }
L:1/8
M:4/4
K:Bb
V:1 treble nm="Grand Piano"
V:3 treble 
V:2 bass 
V:4 bass 
V:1
 z4 z2[Q:1/4=94] [B,D][CE] | [DF][EG][DF][CE] [B,D][DF][DB][Ec] | %2
[M:3/4] [Fd][DB] [Ge][^FB] [=Fd]2 |[M:1/4] F>d |[M:4/4] c6 z2 |[M:3/4] B6[K:bass] |[M:1/4] D[CE] | %7
[M:4/4][K:treble] [DF][EG][DF][CE] [B,D][DF][DB][Ec] |[M:3/4] [Fd][DB] [Ge][^FB] [=Fd]2 | %9
[M:1/4] F>d |[M:4/4] c6 z2 |[M:3/4] B6[K:bass] |[M:1/4][K:treble] FF |[M:4/4] cccc cAGF | %14
 [DB][DB][EB][EB] [DB]2 [FB]c | dddd d[FB][Fe][Fd] | z4 c2 z2 | [Fd][Fd][Fd][Fd] [Fd][DB]cd | %18
 [Ge][GB][Ge][^FB] [=Fd]2 F>d | c6 z2 |[M:3/4] [DB]6 |] %21
V:2
 z4 z2 [B,,F,][B,,F,] | [B,,B,][B,,B,][B,,B,][B,,F,] [B,,F,][B,,B,][B,,F,][B,,F,] | %2
[M:3/4] [B,,B,][B,,B,] [B,,B,][B,,B,] [B,,B,]2 |[M:1/4][K:treble] D>F |[M:4/4] E6[K:bass] z2 | %5
[M:3/4] D6 |[M:1/4] [B,,F,B,][B,,F,] | %7
[M:4/4] [B,,B,][B,,B,][B,,B,][B,,F,] [B,,F,][B,,B,][B,,F,][B,,F,] | %8
[M:3/4] [B,,B,][B,,B,] [B,,B,][B,,B,] [B,,B,]2 |[M:1/4][K:treble] D>F |[M:4/4] E6[K:bass] z2 | %11
[M:3/4] D6 |[M:1/4] [B,D][B,D] |[M:4/4] [F,A,E][F,A,E][F,A,E][F,A,E] [F,A,E][F,CE][F,B,E][F,A,E] | %14
 [B,,B,][B,,F,][B,,G,][B,,G,] [B,,F,]2 [D,B,][K:treble][F,A,F] | %15
 [B,F][B,F][B,F][B,F] [B,F][K:bass][D,B,][C,A,][B,,B,] | %16
 [F,A,][F,A,][C,G,][C,B,] .[F,A,F]2 [B,,B,][B,,B,] | %17
 [B,,B,][B,,B,][B,,B,][B,,B,] [B,,B,][B,,B,][K:treble][B,E][B,F] | %18
 [E,B,][E,B,][E,B,][E,B,] [B,,B,]2[K:treble] D>F | E6[K:bass] z2 |[M:3/4] [B,,F,]6 |] %21
V:3
 x8 | x8 |[M:3/4] x6 |[M:1/4] x2 |[M:4/4] z2 A,>A, A,2 F>c |[M:3/4] z2[K:bass] F,>F, F,2 | %6
[M:1/4] x2 |[M:4/4][K:treble] x8 |[M:3/4] x6 |[M:1/4] x2 |[M:4/4] z2 A,>A, A,2 F>c | %11
[M:3/4] z2[K:bass] F,>F, F,2 |[M:1/4][K:treble] x2 |[M:4/4] x8 | x8 | x8 | %16
 [Fc][Fc][=Ec][Ec] z _E[DB][Ec] | x8 | x8 | z2 A,>A, A,c F>c |[M:3/4] x6 |] %21
V:4
 x8 | x8 |[M:3/4] x6 |[M:1/4][K:treble] x2 |[M:4/4] z2[K:bass] F,>F, F,2 E>E | %5
[M:3/4] z2 B,,>B,, B,,2 |[M:1/4] x2 |[M:4/4] x8 |[M:3/4] x6 |[M:1/4][K:treble] x2 | %10
[M:4/4] z2[K:bass] F,>F, F,2 E>E |[M:3/4] z2 B,,>B,, B,,2 |[M:1/4] x2 |[M:4/4] x8 | %14
 x7[K:treble] x | x5[K:bass] x3 | x8 | x6[K:treble] x2 | x6[K:treble] x2 | %19
 z2[K:bass] F,>F, F,[F,A,E] [F,A,E]>[F,E] |[M:3/4] x6 |] %21

